Obsidian/status/22s/megawarning.svg

<svg height="22" width="22" xmlns="http://www.w3.org/2000/svg"><path d="m11 3c-4.4177135 0-8 3.578744-8 8 0 4.417713 3.5787438 8 8 8 .326401 0 .646718-.024531.962891-.0625a5 5 0 0 1 -.962891-2.9375 5 5 0 0 1 2-3.992188v-.507812l-1 1.5h-2l-1-1.5v2.5h-2v-6h2l2 3 2-3h2v3.105469a5 5 0 0 1 1-.105469 5 5 0 0 1 2.9375.960938c.037824-.315629.0625-.635059.0625-.960938 0-4.4177134-3.578744-8-8-8z" fill="#d3dae3"/><path d="m16.279297 12.007812c-.768533-.054321-1.561885.113119-2.279297.527344-1.9132 1.1046-2.567391 3.551644-1.462891 5.464844 1.1045 1.9131 3.549791 2.567491 5.462891 1.462891 1.9132-1.1046 2.569344-3.549691 1.464844-5.462891-.690313-1.195688-1.904658-1.901651-3.185547-1.992188zm-1.693359 1.871094 1.414062 1.414063 1.414062-1.414063.707032.707032-1.414063 1.414062 1.414063 1.414062-.707032.707032-1.414062-1.414063-1.414062 1.414063-.707032-.707032 1.414063-1.414062-1.414063-1.414062z" fill="#5294e2"/></svg>

<svg xmlns="http://www.w3.org/2000/svg" width="22" height="22" version="1.1">
 <defs>
  <style id="current-color-scheme" type="text/css">
   .ColorScheme-Text { color:#d3dae3; } .ColorScheme-Highlight { color:#5294e2; }
  </style>
 </defs>
 <g style="fill:currentColor" class="ColorScheme-Text">
  <path style="fill:currentColor" class="ColorScheme-Text" d="M 11 3 C 6.5822865 3 3 6.578744 3 11 C 3 15.417713 6.5787438 19 11 19 C 11.326401 19 11.646718 18.975469 11.962891 18.9375 A 5 5 0 0 1 11 16 A 5 5 0 0 1 13 12.007812 L 13 11.5 L 12 13 L 10 13 L 9 11.5 L 9 14 L 7 14 L 7 8 L 9 8 L 11 11 L 13 8 L 15 8 L 15 11.105469 A 5 5 0 0 1 16 11 A 5 5 0 0 1 18.9375 11.960938 C 18.975324 11.645309 19 11.325879 19 11 C 19 6.5822866 15.421256 3 11 3 z"/>
 </g>
 <path style="fill:currentColor" class="ColorScheme-Highlight" d="M 16.279297 12.007812 C 15.510764 11.953491 14.717412 12.120931 14 12.535156 C 12.0868 13.639756 11.432609 16.0868 12.537109 18 C 13.641609 19.9131 16.0869 20.567491 18 19.462891 C 19.9132 18.358291 20.569344 15.9132 19.464844 14 C 18.774531 12.804312 17.560186 12.098349 16.279297 12.007812 z M 14.585938 13.878906 L 16 15.292969 L 17.414062 13.878906 L 18.121094 14.585938 L 16.707031 16 L 18.121094 17.414062 L 17.414062 18.121094 L 16 16.707031 L 14.585938 18.121094 L 13.878906 17.414062 L 15.292969 16 L 13.878906 14.585938 L 14.585938 13.878906 z"/>
</svg>
